kora-light-panel/panel/16/indicator-sensors-cpu.svg

<svg xmlns="http://www.w3.org/2000/svg" width="16" height="16" version="1.1">
 <defs>
  <style id="current-color-scheme" type="text/css">
   .ColorScheme-Text { color:#444444; } .ColorScheme-Highlight { color:#4285f4; }
  </style>
 </defs>
 <path style="fill:currentColor" class="ColorScheme-Text" d="M 5.25,0 C 5.1115,0 5,0.1115 5,0.25 V 1.75 C 5,1.8885 5.1115,2 5.25,2 H 5.75 C 5.8885,2 6,1.8885 6,1.75 V 0.25 C 6,0.1115 5.8885,0 5.75,0 Z M 9.25,0 C 9.112,0 9,0.1115 9,0.25 V 1.75 C 9,1.8885 9.112,2 9.25,2 H 9.75 C 9.888,2 10,1.8885 10,1.75 V 0.25 C 10,0.1115 9.888,0 9.75,0 Z M 13.25,0 C 13.112,0 13,0.1115 13,0.25 V 1.75 C 13,1.8885 13.112,2 13.25,2 H 13.75 C 13.888,2 14,1.8885 14,1.75 V 0.25 C 14,0.1115 13.888,0 13.75,0 Z M 3.25,2 C 2.5575,2 2,2.5575 2,3.25 V 4.0254 C 2.5716,4.1408 3,4.6434 3,5.25 V 5.75 C 3,6.3566 2.5716,6.8592 2,6.9746 V 8.025 C 2.5716,8.141 3,8.643 3,9.25 V 9.75 C 3,10.357 2.5716,10.859 2,10.975 V 12.025 C 2.5716,12.141 3,12.643 3,13.25 V 13.75 C 3,14.349 2.582,14.845 2.0215,14.969 2.1249,15.556 2.6326,16 3.25,16 H 14.75 C 15.442,16 16,15.442 16,14.75 V 3.25 C 16,2.6414 15.569,2.1387 14.994,2.0254 14.98,2.5668 14.545,3 14,3 H 13 C 12.446,3 12,2.554 12,2 H 11 C 11,2.554 10.554,3 10,3 H 9 C 8.446,3 8,2.554 8,2 H 7 C 7,2.554 6.554,3 6,3 H 5 C 4.446,3 4,2.554 4,2 Z M 5,4 H 14 C 14.554,4 15,4.446 15,5 V 14 C 15,14.554 14.554,15 14,15 H 5 C 4.446,15 4,14.554 4,14 V 5 C 4,4.446 4.446,4 5,4 Z M 0.25,5 C 0.1115,5 0,5.1115 0,5.25 V 5.75 C 0,5.8885 0.1115,6 0.25,6 H 1.75 C 1.8885,6 2,5.8885 2,5.75 V 5.25 C 2,5.1115 1.8885,5 1.75,5 Z M 5.25,5 C 5.1115,5 5,5.1115 5,5.25 V 13.75 C 5,13.888 5.1115,14 5.25,14 H 13.75 C 13.888,14 14,13.888 14,13.75 V 5.25 C 14,5.1115 13.888,5 13.75,5 Z M 0.25,9 C 0.1115,9 0,9.112 0,9.25 V 9.75 C 0,9.888 0.1115,10 0.25,10 H 1.75 C 1.8885,10 2,9.888 2,9.75 V 9.25 C 2,9.112 1.8885,9 1.75,9 Z M 0.25,13 C 0.1115,13 0,13.112 0,13.25 V 13.75 C 0,13.888 0.1115,14 0.25,14 H 1.75 C 1.8885,14 2,13.888 2,13.75 V 13.25 C 2,13.112 1.8885,13 1.75,13 Z"/>
</svg>

<svg xmlns="http://www.w3.org/2000/svg" width="16" height="16" viewBox="0 0 16 16">
 <defs>
  <style id="current-color-scheme" type="text/css">
   .ColorScheme-Text { color:#444444; } .ColorScheme-Highlight { color:#4285f4; } .ColorScheme-NeutralText { color:#ff9800; } .ColorScheme-PositiveText { color:#4caf50; } .ColorScheme-NegativeText { color:#f44336; }
  </style>
 </defs>
 <path style="fill:currentColor" class="ColorScheme-Text" d="m3.25 2c-.692 0-1.25.558-1.25 1.25v.775c.572.116 1 .618 1 1.225v.5c0 .607-.428 1.109-1 1.225v1.05c.572.116 1 .618 1 1.225v.5c0 .607-.428 1.109-1 1.225v1.05c.572.116 1 .618 1 1.225v.5c0 .599-.418 1.095-.978 1.219.103.587.611 1.031 1.228 1.031h11.5c.692 0 1.25-.558 1.25-1.25v-11.5c0-.609-.431-1.111-1.006-1.225-.014.542-.449.975-.994.975h-1c-.554 0-1-.446-1-1h-1c0 .554-.446 1-1 1h-1c-.554 0-1-.446-1-1h-1c0 .554-.446 1-1 1h-1c-.554 0-1-.446-1-1zm1.75 2h9c.554 0 1 .446 1 1v9c0 .554-.446 1-1 1h-9c-.554 0-1-.446-1-1v-9c0-.554.446-1 1-1z"/>
 <path style="opacity:0.3;fill:currentColor" class="ColorScheme-Text" d="m5.25 5c-.138 0-.25.112-.25.25v8.5c0 .138.112.25.25.25h8.5c.138 0 .25-.112.25-.25v-8.5c0-.138-.112-.25-.25-.25zm-5 8c-.139 0-.25.112-.25.25v.5c0 .138.112.25.25.25h1.5c.139 0 .25-.112.25-.25v-.5c0-.138-.111-.25-.25-.25zm0-4c-.139 0-.25.112-.25.25v.5c0 .138.112.25.25.25h1.5c.139 0 .25-.112.25-.25v-.5c0-.138-.111-.25-.25-.25zm0-4c-.139 0-.25.112-.25.25v.5c0 .138.112.25.25.25h1.5c.139 0 .25-.112.25-.25v-.5c0-.138-.111-.25-.25-.25zm5-5c-.138 0-.25.112-.25.25v1.5c0 .139.112.25.25.25h.5c.138 0 .25-.111.25-.25v-1.5c0-.139-.112-.25-.25-.25zm4 0c-.138 0-.25.112-.25.25v1.5c0 .139.112.25.25.25h.5c.138 0 .25-.111.25-.25v-1.5c0-.139-.112-.25-.25-.25zm4 0c-.138 0-.25.112-.25.25v1.5c0 .139.112.25.25.25h.5c.138 0 .25-.111.25-.25v-1.5c0-.139-.112-.25-.25-.25z" fill-opacity=".3"/>
</svg>
